apps/16/kdesrc-build.svg

<?xml version="1.0" encoding="UTF-8" standalone="no"?>
<!-- Created with Inkscape (http://www.inkscape.org/) -->

<svg
   width="16"
   height="16"
   version="1.1"
   viewBox="0 0 16 16"
   id="svg22"
   xmlns:xlink="http://www.w3.org/1999/xlink"
   xmlns="http://www.w3.org/2000/svg"
   xmlns:svg="http://www.w3.org/2000/svg">
  <defs
     id="defs12">
    <linearGradient
       id="linearGradient1005-3-3"
       x1="5.2535"
       x2="9.3823996"
       y1="15.383"
       y2="2.9421"
       gradientTransform="matrix(0.99999,0,0,0.99999,1.632,-0.61743)"
       gradientUnits="userSpaceOnUse">
      <stop
         stop-color="#fa8200"
         offset="0"
         id="stop2" />
      <stop
         stop-color="#ff9600"
         offset=".36953"
         id="stop4" />
      <stop
         stop-color="#ffb400"
         offset="1"
         id="stop6" />
    </linearGradient>
    <filter
       id="filter4014"
       x="-0.062499933"
       y="-0.057692993"
       width="1.1249999"
       height="1.115386"
       color-interpolation-filters="sRGB">
      <feGaussianBlur
         stdDeviation="1.093751"
         id="feGaussianBlur9" />
    </filter>
    <linearGradient
       xlink:href="#linearGradient3487"
       id="linearGradient3403"
       gradientUnits="userSpaceOnUse"
       x1="6.9491749"
       y1="4.5549412"
       x2="11.215498"
       y2="59.052471" />
    <linearGradient
       id="linearGradient3487">
      <stop
         style="stop-color:#32373c;stop-opacity:1"
         offset="0"
         id="stop3481" />
      <stop
         id="stop3483"
         offset="0.36804965"
         style="stop-color:#1a1a1a;stop-opacity:1" />
      <stop
         style="stop-color:#31363b;stop-opacity:1"
         offset="1"
         id="stop3485" />
    </linearGradient>
    <linearGradient
       xlink:href="#linearGradient20604"
       id="linearGradient20558"
       gradientUnits="userSpaceOnUse"
       x1="25.802212"
       y1="20.373846"
       x2="25.111048"
       y2="58.912758" />
    <linearGradient
       id="linearGradient20604">
      <stop
         id="stop20598"
         offset="0"
         style="stop-color:#3d3d3d;stop-opacity:1" />
      <stop
         style="stop-color:#000000;stop-opacity:1"
         offset="0.61772454"
         id="stop20600" />
      <stop
         id="stop20602"
         offset="1"
         style="stop-color:#3d3d3d;stop-opacity:1" />
    </linearGradient>
    <filter
       style="color-interpolation-filters:sRGB"
       id="filter20720"
       x="-0.017024755"
       y="-0.016457183"
       width="1.0340491"
       height="1.0329144">
      <feGaussianBlur
         stdDeviation="0.14745661"
         id="feGaussianBlur20722" />
    </filter>
    <linearGradient
       gradientTransform="translate(0.36067797,-0.13016949)"
       xlink:href="#linearGradient4555"
       id="linearGradient4557"
       x1="43.499737"
       y1="64.011795"
       x2="44.141731"
       y2="0.30621234"
       gradientUnits="userSpaceOnUse" />
    <linearGradient
       id="linearGradient4555">
      <stop
         style="stop-color:#141618;stop-opacity:1"
         offset="0"
         id="stop4551" />
      <stop
         id="stop4559"
         offset="0.51820582"
         style="stop-color:#686868;stop-opacity:1" />
      <stop
         style="stop-color:#31363b;stop-opacity:1"
         offset="1"
         id="stop4553" />
    </linearGradient>
    <filter
       style="color-interpolation-filters:sRGB"
       id="filter4601"
       x="-0.030244955"
       width="1.0604899"
       y="-0.030100647"
       height="1.0602013">
      <feGaussianBlur
         stdDeviation="0.014790289"
         id="feGaussianBlur4603" />
    </filter>
    <linearGradient
       id="c-9"
       gradientUnits="userSpaceOnUse"
       x1="20"
       x2="40"
       y1="24"
       y2="44"
       gradientTransform="matrix(1.5612322,0,0,1.5612322,-4.9468994,-7.3027002)">
      <stop
         offset="0"
         id="stop12-4" />
      <stop
         offset="1"
         stop-opacity="0"
         id="stop14-9" />
    </linearGradient>
    <linearGradient
       id="b"
       gradientUnits="userSpaceOnUse"
       x1="9"
       x2="64"
       y1="13"
       y2="68"
       gradientTransform="matrix(1.5612322,0,0,1.5612322,-4.9468994,-7.3027002)">
      <stop
         offset="0"
         stop-color="#fcfcfc"
         id="stop7-0" />
      <stop
         offset="1"
         stop-color="#e74c3c"
         id="stop9-9" />
    </linearGradient>
    <linearGradient
       id="a"
       x1="8"
       x2="8"
       y2="16"
       gradientUnits="userSpaceOnUse">
      <stop
         stop-color="#34495e"
         offset="0"
         id="stop1" />
      <stop
         stop-color="#391847"
         offset="1"
         id="stop2-7" />
    </linearGradient>
    <linearGradient
       id="b-2"
       x1="8"
       x2="8"
       y1="11.6"
       y2="16"
       gradientUnits="userSpaceOnUse">
      <stop
         stop-color="#494d76"
         offset="0"
         id="stop3" />
      <stop
         stop-color="#552968"
         offset="1"
         id="stop4-2" />
    </linearGradient>
    <linearGradient
       id="c"
       x1="3.9997599"
       x2="3.6349199"
       y1="5"
       y2="14.1916"
       gradientUnits="userSpaceOnUse">
      <stop
         stop-color="#538094"
         offset="0"
         id="stop5" />
      <stop
         stop-color="#136b2f"
         offset="1"
         id="stop6-6" />
    </linearGradient>
    <linearGradient
       id="d"
       x1="2.8"
       x2="2.3756001"
       y1="5"
       y2="14.1804"
       gradientUnits="userSpaceOnUse">
      <stop
         stop-color="#6599af"
         offset="0"
         id="stop7" />
      <stop
         stop-color="#1da848"
         offset="1"
         id="stop8" />
    </linearGradient>
    <linearGradient
       id="e"
       x1="3.7997999"
       x2="3.7997999"
       y1="8.2000704"
       y2="14.2001"
       gradientUnits="userSpaceOnUse">
      <stop
         stop-color="#2ecc71"
         offset="0"
         id="stop9" />
      <stop
         stop-color="#cef829"
         offset="1"
         id="stop10" />
    </linearGradient>
    <linearGradient
       id="f"
       x1="3.8002901"
       x2="3.8002901"
       y1="9.8000202"
       y2="14.2"
       gradientUnits="userSpaceOnUse">
      <stop
         stop-color="#84fe9f"
         offset="0"
         id="stop11" />
      <stop
         stop-color="#84fe9f"
         stop-opacity="0"
         offset="1"
         id="stop12" />
    </linearGradient>
    <linearGradient
       id="g"
       x1="7.04737"
       x2="6.78863"
       y1="3"
       y2="14.194"
       gradientUnits="userSpaceOnUse">
      <stop
         stop-color="#537594"
         offset="0"
         id="stop13" />
      <stop
         stop-color="#11686d"
         offset="1"
         id="stop14" />
    </linearGradient>
    <linearGradient
       id="h"
       x1="5.9997602"
       x2="5.5015502"
       y1="3.3999801"
       y2="14.1769"
       gradientUnits="userSpaceOnUse">
      <stop
         stop-color="#5d8da8"
         offset="0"
         id="stop15" />
      <stop
         stop-color="#0e957d"
         offset="1"
         id="stop16" />
    </linearGradient>
    <linearGradient
       id="i"
       x1="6.9997602"
       x2="6.9997602"
       y1="8.2000198"
       y2="14.2"
       gradientUnits="userSpaceOnUse">
      <stop
         stop-color="#3daee9"
         offset="0"
         id="stop17" />
      <stop
         stop-color="#1cdc9a"
         offset="1"
         id="stop18" />
    </linearGradient>
    <linearGradient
       id="j"
       x1="6.9997602"
       x2="6.9997602"
       y1="8.2000198"
       y2="14.2"
       gradientUnits="userSpaceOnUse">
      <stop
         stop-color="#55def0"
         offset="0"
         id="stop19" />
      <stop
         stop-color="#55def0"
         stop-opacity="0"
         offset="1"
         id="stop20" />
    </linearGradient>
    <linearGradient
       id="k"
       x1="6"
       x2="8"
       y1="3.5"
       y2="3.5"
       gradientUnits="userSpaceOnUse">
      <stop
         stop-color="#70a2b9"
         offset="0"
         id="stop21" />
      <stop
         stop-color="#507694"
         offset="1"
         id="stop22" />
    </linearGradient>
    <linearGradient
       id="l"
       x1="11.0004"
       x2="11.062"
       y1="3.2000699"
       y2="14.3997"
       gradientUnits="userSpaceOnUse">
      <stop
         stop-color="#537594"
         offset="0"
         id="stop23" />
      <stop
         stop-color="#9a265e"
         offset="1"
         id="stop24" />
    </linearGradient>
    <linearGradient
       id="m"
       x1="9.5002403"
       x2="9.5002403"
       y1="2.79245"
       y2="14"
       gradientUnits="userSpaceOnUse">
      <stop
         stop-color="#7998be"
         stop-opacity=".8"
         offset="0"
         id="stop25" />
      <stop
         stop-color="#9265a2"
         offset=".5"
         id="stop26" />
      <stop
         stop-color="#622e2e"
         offset="1"
         id="stop27" />
    </linearGradient>
    <linearGradient
       id="n"
       x1="10.9838"
       x2="10.9838"
       y1="10.4244"
       y2="13.5153"
       gradientUnits="userSpaceOnUse">
      <stop
         stop-color="#e74c3c"
         offset="0"
         id="stop28" />
      <stop
         stop-color="#da4453"
         offset=".5"
         id="stop29" />
      <stop
         stop-color="#9b59b6"
         offset="1"
         id="stop30" />
    </linearGradient>
    <linearGradient
       id="o"
       x1="9.0000401"
       x2="9.0000401"
       y1="10.5244"
       y2="13.0002"
       gradientUnits="userSpaceOnUse">
      <stop
         stop-color="#fa8e6c"
         offset="0"
         id="stop31" />
      <stop
         stop-color="#fa8e6c"
         stop-opacity="0"
         offset="1"
         id="stop32" />
    </linearGradient>
    <linearGradient
       id="p"
       x1="9.3999004"
       x2="12.1999"
       y1="3.40007"
       y2="3.40007"
       gradientUnits="userSpaceOnUse">
      <stop
         stop-color="#99afd2"
         offset="0"
         id="stop33" />
      <stop
         stop-color="#6a87ab"
         offset="1"
         id="stop34" />
    </linearGradient>
  </defs>
  <g
     id="g53"
     transform="matrix(0.81534028,0,0,0.82527035,2.5628961,1.3978372)">
    <path
       d="M 0,2 C 0,0.895431 0.895431,0 2,0 h 12 c 1.1046,0 2,0.895431 2,2 v 12 c 0,1.1046 -0.8954,2 -2,2 H 2 C 0.895431,16 0,15.1046 0,14 Z"
       fill="url(#a)"
       id="path34"
       style="fill:url(#a)" />
    <path
       d="m 0,11 h 16 v 3 c 0,1.1045 -0.8954,2 -2,2 H 2 C 0.895431,16 0,15.1045 0,14 Z"
       fill="url(#b)"
       id="path35"
       style="fill:url(#b-2)" />
    <path
       d="m 2,5 h 2.99995 l -1.7e-4,8 c -1e-5,0.5523 -0.44772,1 -1,1 C 3.44749,14 2.99977,13.5523 2.99979,13 L 3,7 Z"
       fill="url(#c)"
       id="path38"
       style="fill:url(#c)" />
    <path
       d="M 4.00024,5 H 2 L 3.00024,5.5 V 13 c 0,0.5523 0.44772,1 1,1 z"
       clip-rule="evenodd"
       fill="url(#d)"
       fill-rule="evenodd"
       id="path39"
       style="fill:url(#d)" />
    <path
       d="m 3,10.0001 c 0.62942,-0.31468 1.37064,-0.3148 2,0 V 13 C 5,13.5523 4.55228,14 4,14 3.44772,14 3,13.5523 3,13 Z"
       fill="url(#e)"
       id="path40"
       style="fill:url(#e)" />
    <path
       d="m 4.00034,9.76404 c -0.34265,-2e-5 -0.68531,0.07867 -1.0001,0.23606 l 7e-5,2 c 2e-5,0.5523 0.44774,1 1.00003,1 z"
       clip-rule="evenodd"
       fill="url(#f)"
       fill-rule="evenodd"
       id="path41"
       style="fill:url(#f)" />
    <path
       d="m 3,12 v 1 c 0,0.5523 0.44772,1 1,1 0.55228,0 1,-0.4477 1,-1 V 12 C 5,12.5523 4.55228,13 4,13 3.44772,13 3,12.5523 3,12 Z"
       fill="#99ad1d"
       id="path42" />
    <path
       d="M 6,3 H 8 V 13 C 8,13.5523 7.55228,14 7,14 6.44772,14 6,13.5523 6,13 Z"
       fill="url(#g)"
       id="path43"
       style="fill:url(#g)" />
    <path
       d="M 7.00022,4.99995 6.00022,4.5 6,12.9997 C 5.99999,13.5522 6.4478,14 7.00022,14 Z"
       clip-rule="evenodd"
       fill="url(#h)"
       fill-rule="evenodd"
       id="path44"
       style="fill:url(#h)" />
    <path
       d="m 6,7.99988 2.00024,0.5 -1.9e-4,4.50002 c -2e-5,0.5523 -0.44774,1 -1.00002,1 -0.5523,0 -1.00002,-0.4477 -1.00002,-1 z"
       fill="url(#i)"
       id="path45"
       style="fill:url(#i)" />
    <path
       d="m 6.99995,8.24988 -1,-0.25 -1.9e-4,3.99972 c -3e-5,0.5524 0.44778,1.0003 1.00019,1.0003 z"
       fill="url(#j)"
       id="path46"
       style="fill:url(#j)" />
    <path
       d="m 6,11.9999 v 1 c 0,0.5523 0.44773,1 1.00002,1 0.55228,0 1,-0.4477 1.00002,-1 v -1 c -2e-5,0.5523 -0.44774,1 -1.00002,1 C 6.44773,12.9999 6,12.5522 6,11.9999 Z"
       fill="#149b8b"
       id="path47" />
    <path
       d="m 5.5,3 h 3 v 1 h -3 z"
       fill="url(#k)"
       id="path48"
       style="fill:url(#k)" />
    <path
       d="m 10.0002,3 h 2 v 4.50002 l 3,5.50008 C 15.0002,13.5523 14.5526,14 14.0003,14 H 8.00019 C 7.44794,14 7.00024,13.5523 7.00024,13.0001 L 10.0002,7.50002 Z"
       fill="url(#l)"
       id="path49"
       style="fill:url(#l)" />
    <path
       d="M 11.0002,5.00012 10,4.50012 10.0002,7.50002 7,13.0001 h 4 z"
       clip-rule="evenodd"
       fill="url(#m)"
       fill-rule="evenodd"
       id="path50"
       style="fill:url(#m)" />
    <path
       d="m 15.0002,13.0001 -1.6363,-3 -5.00005,0.5 L 7,13.0001 Z"
       clip-rule="evenodd"
       fill="url(#n)"
       fill-rule="evenodd"
       id="path51"
       style="fill:url(#n)" />
    <path
       d="M 11.0001,10.2366 8.36385,10.5002 7,13.0002 h 4 z"
       fill="url(#o)"
       id="path52"
       style="fill:url(#o)" />
    <path
       d="m 9.5,3 h 3 v 1 h -3 z"
       fill="url(#p)"
       id="path53"
       style="fill:url(#p)" />
  </g>
  <path
     style="display:inline;mix-blend-mode:normal;fill:url(#linearGradient3403);fill-opacity:1;stroke:url(#linearGradient20558);stroke-width:1.16242;stroke-linecap:butt;stroke-linejoin:round;stroke-miterlimit:4;stroke-dasharray:none;stroke-opacity:1;filter:url(#filter20720)"
     d="M 4.7043071,3.9814882 4.6913695,60.80196 H 58.59546 l 1.022155,-2.866369 c 0,0 -23.87537,0.766388 -32.844441,-4.140386 C 16.257548,48.042344 11.401114,4.0978197 11.401114,4.0978197 Z"
     id="path1686"
     transform="matrix(0.24114095,0,0,0.24114095,0.54637629,0.43773631)" />
  <rect
     style="display:inline;fill:none;fill-opacity:1;stroke:url(#linearGradient4557);stroke-width:3.71366;stroke-linejoin:round;stroke-miterlimit:7.8;stroke-dasharray:none;stroke-opacity:0.995146;filter:url(#filter4601)"
     id="rect4539"
     width="62.566689"
     height="62.866646"
     x="1.0323594"
     y="0.59551275"
     ry="6.2447233"
     rx="5.8029528"
     transform="matrix(0.22589667,0,0,0.22543625,0.95153228,0.92500878)" />
</svg>

<svg width="16" height="16" version="1.1" viewBox="0 0 16 16" xmlns="http://www.w3.org/2000/svg" xmlns:xlink="http://www.w3.org/1999/xlink">
<defs>
<linearGradient id="linearGradient3403" x1="6.9492" x2="11.215" y1="4.5549" y2="59.052" gradientUnits="userSpaceOnUse">
<stop style="stop-color:#32373c" offset="0"/>
<stop style="stop-color:#1a1a1a" offset=".36805"/>
<stop style="stop-color:#31363b" offset="1"/>
</linearGradient>
<linearGradient id="linearGradient20558" x1="25.802" x2="25.111" y1="20.374" y2="58.913" gradientUnits="userSpaceOnUse">
<stop style="stop-color:#3d3d3d" offset="0"/>
<stop offset=".61772"/>
<stop style="stop-color:#3d3d3d" offset="1"/>
</linearGradient>
<linearGradient id="linearGradient4557" x1="43.5" x2="44.142" y1="64.012" y2=".30621" gradientTransform="translate(.36068 -.13017)" gradientUnits="userSpaceOnUse">
<stop style="stop-color:#141618" offset="0"/>
<stop style="stop-color:#686868" offset=".51821"/>
<stop style="stop-color:#31363b" offset="1"/>
</linearGradient>
<linearGradient id="b" x1="9" x2="64" y1="13" y2="68" gradientTransform="matrix(1.5612 0 0 1.5612 -4.9469 -7.3027)" gradientUnits="userSpaceOnUse">
<stop stop-color="#fcfcfc" offset="0"/>
<stop stop-color="#e74c3c" offset="1"/>
</linearGradient>
<linearGradient id="a" x1="8" x2="8" y2="16" gradientUnits="userSpaceOnUse">
<stop stop-color="#34495e" offset="0"/>
<stop stop-color="#391847" offset="1"/>
</linearGradient>
<linearGradient id="b-2" x1="8" x2="8" y1="11.6" y2="16" gradientUnits="userSpaceOnUse">
<stop stop-color="#494d76" offset="0"/>
<stop stop-color="#552968" offset="1"/>
</linearGradient>
<linearGradient id="c" x1="3.9998" x2="3.6349" y1="5" y2="14.192" gradientUnits="userSpaceOnUse">
<stop stop-color="#538094" offset="0"/>
<stop stop-color="#136b2f" offset="1"/>
</linearGradient>
<linearGradient id="d" x1="2.8" x2="2.3756" y1="5" y2="14.18" gradientUnits="userSpaceOnUse">
<stop stop-color="#6599af" offset="0"/>
<stop stop-color="#1da848" offset="1"/>
</linearGradient>
<linearGradient id="e" x1="3.7998" x2="3.7998" y1="8.2001" y2="14.2" gradientUnits="userSpaceOnUse">
<stop stop-color="#2ecc71" offset="0"/>
<stop stop-color="#cef829" offset="1"/>
</linearGradient>
<linearGradient id="f" x1="3.8003" x2="3.8003" y1="9.8" y2="14.2" gradientUnits="userSpaceOnUse">
<stop stop-color="#84fe9f" offset="0"/>
<stop stop-color="#84fe9f" stop-opacity="0" offset="1"/>
</linearGradient>
<linearGradient id="g" x1="7.0474" x2="6.7886" y1="3" y2="14.194" gradientUnits="userSpaceOnUse">
<stop stop-color="#537594" offset="0"/>
<stop stop-color="#11686d" offset="1"/>
</linearGradient>
<linearGradient id="h" x1="5.9998" x2="5.5016" y1="3.4" y2="14.177" gradientUnits="userSpaceOnUse">
<stop stop-color="#5d8da8" offset="0"/>
<stop stop-color="#0e957d" offset="1"/>
</linearGradient>
<linearGradient id="i" x1="6.9998" x2="6.9998" y1="8.2" y2="14.2" gradientUnits="userSpaceOnUse">
<stop stop-color="#3daee9" offset="0"/>
<stop stop-color="#1cdc9a" offset="1"/>
</linearGradient>
<linearGradient id="j" x1="6.9998" x2="6.9998" y1="8.2" y2="14.2" gradientUnits="userSpaceOnUse">
<stop stop-color="#55def0" offset="0"/>
<stop stop-color="#55def0" stop-opacity="0" offset="1"/>
</linearGradient>
<linearGradient id="k" x1="6" x2="8" y1="3.5" y2="3.5" gradientUnits="userSpaceOnUse">
<stop stop-color="#70a2b9" offset="0"/>
<stop stop-color="#507694" offset="1"/>
</linearGradient>
<linearGradient id="l" x1="11" x2="11.062" y1="3.2001" y2="14.4" gradientUnits="userSpaceOnUse">
<stop stop-color="#537594" offset="0"/>
<stop stop-color="#9a265e" offset="1"/>
</linearGradient>
<linearGradient id="m" x1="9.5002" x2="9.5002" y1="2.7924" y2="14" gradientUnits="userSpaceOnUse">
<stop stop-color="#7998be" stop-opacity=".8" offset="0"/>
<stop stop-color="#9265a2" offset=".5"/>
<stop stop-color="#622e2e" offset="1"/>
</linearGradient>
<linearGradient id="n" x1="10.984" x2="10.984" y1="10.424" y2="13.515" gradientUnits="userSpaceOnUse">
<stop stop-color="#e74c3c" offset="0"/>
<stop stop-color="#da4453" offset=".5"/>
<stop stop-color="#9b59b6" offset="1"/>
</linearGradient>
<linearGradient id="o" x1="9" x2="9" y1="10.524" y2="13" gradientUnits="userSpaceOnUse">
<stop stop-color="#fa8e6c" offset="0"/>
<stop stop-color="#fa8e6c" stop-opacity="0" offset="1"/>
</linearGradient>
<linearGradient id="p" x1="9.3999" x2="12.2" y1="3.4001" y2="3.4001" gradientUnits="userSpaceOnUse">
<stop stop-color="#99afd2" offset="0"/>
<stop stop-color="#6a87ab" offset="1"/>
</linearGradient>
</defs>
<g transform="matrix(.81534 0 0 .82527 2.5629 1.3978)">
<path d="m0 2c0-1.1046 0.89543-2 2-2h12c1.1046 0 2 0.89543 2 2v12c0 1.1046-0.8954 2-2 2h-12c-1.1046 0-2-0.8954-2-2z" fill="url(#a)" style="fill:url(#a)"/>
<path d="m0 11h16v3c0 1.1045-0.8954 2-2 2h-12c-1.1046 0-2-0.8955-2-2z" fill="url(#b)" style="fill:url(#b-2)"/>
<path d="m2 5h3l-1.7e-4 8c-1e-5 0.5523-0.44772 1-1 1-0.55229 0-1-0.4477-0.99999-1l2.1e-4 -6z" fill="url(#c)" style="fill:url(#c)"/>
<path d="m4.0002 5h-2.0002l1.0002 0.5v7.5c0 0.5523 0.44772 1 1 1z" clip-rule="evenodd" fill="url(#d)" fill-rule="evenodd" style="fill:url(#d)"/>
<path d="m3 10c0.62942-0.31468 1.3706-0.3148 2 0v2.9999c0 0.5523-0.44772 1-1 1s-1-0.4477-1-1z" fill="url(#e)" style="fill:url(#e)"/>
<path d="m4.0003 9.764c-0.34265-2e-5 -0.68531 0.07867-1.0001 0.23606l7e-5 2c2e-5 0.5523 0.44774 1 1 1z" clip-rule="evenodd" fill="url(#f)" fill-rule="evenodd" style="fill:url(#f)"/>
<path d="m3 12v1c0 0.5523 0.44772 1 1 1s1-0.4477 1-1v-1c0 0.5523-0.44772 1-1 1s-1-0.4477-1-1z" fill="#99ad1d"/>
<path d="m6 3h2v10c0 0.5523-0.44772 1-1 1s-1-0.4477-1-1z" fill="url(#g)" style="fill:url(#g)"/>
<path d="m7.0002 5-1-0.49995-2.2e-4 8.4997c-1e-5 0.5525 0.4478 1.0003 1.0002 1.0003z" clip-rule="evenodd" fill="url(#h)" fill-rule="evenodd" style="fill:url(#h)"/>
<path d="m6 7.9999 2.0002 0.5-1.9e-4 4.5c-2e-5 0.5523-0.44774 1-1 1-0.5523 0-1-0.4477-1-1z" fill="url(#i)" style="fill:url(#i)"/>
<path d="m7 8.2499-1-0.25-1.9e-4 3.9997c-3e-5 0.5524 0.44778 1.0003 1.0002 1.0003z" fill="url(#j)" style="fill:url(#j)"/>
<path d="m6 12v1c0 0.5523 0.44773 1 1 1 0.55228 0 1-0.4477 1-1v-1c-2e-5 0.5523-0.44774 1-1 1-0.55229 0-1-0.4477-1-1z" fill="#149b8b"/>
<path d="m5.5 3h3v1h-3z" fill="url(#k)" style="fill:url(#k)"/>
<path d="m10 3h2v4.5l3 5.5001c0 0.5522-0.4476 0.9999-0.9999 0.9999h-6.0001c-0.55225 0-0.99995-0.4477-0.99995-0.9999l3-5.5001z" fill="url(#l)" style="fill:url(#l)"/>
<path d="m11 5.0001-1.0002-0.5 2e-4 2.9999-3.0002 5.5001h4z" clip-rule="evenodd" fill="url(#m)" fill-rule="evenodd" style="fill:url(#m)"/>
<path d="m15 13-1.6363-3-5 0.5-1.3638 2.5z" clip-rule="evenodd" fill="url(#n)" fill-rule="evenodd" style="fill:url(#n)"/>
<path d="m11 10.237-2.6362 0.2636-1.3638 2.5h4z" fill="url(#o)" style="fill:url(#o)"/>
<path d="m9.5 3h3v1h-3z" fill="url(#p)" style="fill:url(#p)"/>
</g>
<path transform="matrix(.24114 0 0 .24114 .54638 .43774)" d="m4.7043 3.9815-0.012938 56.82h53.904l1.0222-2.8664s-23.875 0.76639-32.844-4.1404c-10.516-5.7529-15.372-49.697-15.372-49.697z" style="fill:url(#linearGradient3403);mix-blend-mode:normal;stroke-linejoin:round;stroke-width:1.1624;stroke:url(#linearGradient20558)"/>
<rect transform="matrix(.2259 0 0 .22544 .95153 .92501)" x="1.0324" y=".59551" width="62.567" height="62.867" rx="5.803" ry="6.2447" style="fill:none;stroke-linejoin:round;stroke-miterlimit:7.8;stroke-opacity:.99515;stroke-width:3.7137;stroke:url(#linearGradient4557)"/>
</svg>
